X:1
T:Schottis ur Ture Hergils notbok
T:(SM V-1)
R:Schottis
O:Säby, Småland
S:Ture Hergil
B:Småländsk Musiktradition
N:Småländsk Musiktradition V-1
Z:Till abc Jonas Brunskog
M:C
L:1/8
K:D
f/e/|:dA/A/ AB/A/ AG [GB]2|g/f/e/d/ c/B/A/G/ B[FA] [FA]f/e/|dA/A/ AB/A/ AG [GB]2|1 
g/f/e/d/ c/A/B/c/ dd df/e/:|2 g/f/e/d/ c/A/B/c/ dd d2|:f/f/f/A/ f/A/f/A/ g/f/e/d/ c/d/e/f/|
g/B/g/B/ g/B/g/B/ a/g/f/e/ d/c/d/e/|f/f/f/A/ f/A/f/A/ g/f/e/d/ c/d/e/f/|g/f/e/d/ c/A/B/c/ dd dz:|

